hero/outline/megaphone.svg

<svg width="24" height="24" viewBox="0 0 24 24" fill="none" xmlns="http://www.w3.org/2000/svg">
<path d="M10.3404 15.8398C9.65153 15.7803 8.95431 15.75 8.25 15.75H7.5C5.01472 15.75 3 13.7353 3 11.25C3 8.76472 5.01472 6.75 7.5 6.75H8.25C8.95431 6.75 9.65153 6.71966 10.3404 6.66022M10.3404 15.8398C10.5933 16.8015 10.9237 17.7317 11.3246 18.6234C11.5721 19.1738 11.3842 19.8328 10.8616 20.1345L10.2053 20.5134C9.6539 20.8318 8.9456 20.6306 8.67841 20.0527C8.0518 18.6973 7.56541 17.2639 7.23786 15.771M10.3404 15.8398C9.95517 14.3745 9.75 12.8362 9.75 11.25C9.75 9.66379 9.95518 8.1255 10.3404 6.66022M10.3404 15.8398C13.5 16.1124 16.4845 16.9972 19.1747 18.3749M10.3404 6.66022C13.5 6.3876 16.4845 5.50283 19.1747 4.12509M19.1747 4.12509C19.057 3.74595 18.9302 3.37083 18.7944 3M19.1747 4.12509C19.7097 5.84827 20.0557 7.65462 20.1886 9.51991M19.1747 18.3749C19.057 18.7541 18.9302 19.1292 18.7944 19.5M19.1747 18.3749C19.7097 16.6517 20.0557 14.8454 20.1886 12.9801M20.1886 9.51991C20.6844 9.93264 21 10.5545 21 11.25C21 11.9455 20.6844 12.5674 20.1886 12.9801M20.1886 9.51991C20.2293 10.0913 20.25 10.6682 20.25 11.25C20.25 11.8318 20.2293 12.4087 20.1886 12.9801" stroke="#0F172A" stroke-width="1.5" stroke-linecap="round" stroke-linejoin="round"/>
</svg>

<svg viewBox="0 0 24 24" xmlns="http://www.w3.org/2000/svg"><path fill="none" stroke="#000" stroke-linecap="round" stroke-linejoin="round" stroke-width="1.5" d="M10.34 15.84c-.69-.06-1.39-.09-2.09-.09H7.5v0c-2.49 0-4.5-2.02-4.5-4.5 0-2.49 2.01-4.5 4.5-4.5h.75c.7 0 1.4-.03 2.09-.09m0 9.18c.25.96.58 1.89.98 2.78 .24.55.06 1.21-.47 1.51l-.657.38c-.56.31-1.26.11-1.53-.47v0c-.64-1.38-1.12-2.81-1.44-4.29m3.1.06v0c-.4-1.5-.6-3.05-.59-4.59 0-1.59.2-3.13.59-4.59m0 9.18v0c3.08.26 6.08 1.12 8.835 2.535M10.31 6.62V6.62c3.08-.27 6.08-1.13 8.835-2.54m0 0V4.08c-.12-.38-.25-.76-.38-1.125m.38 1.125h-.001c.54 1.75.88 3.56 1.01 5.395m-1.02 8.85c-.12.38-.25.75-.38 1.125m.38-1.125v0c.54-1.76.88-3.57 1.01-5.395m0-3.46c.49.41.81 1.03.81 1.73 0 .69-.32 1.31-.82 1.73m0-3.46v0c.08 1.15.08 2.3 0 3.46"/></svg>
